app/images/dist/logo.svg

<svg width="116" height="73" viewBox="0 0 116 73" fill="none" xmlns="http://www.w3.org/2000/svg">
<path d="M6.96829 1.12323C7.50304 1.01473 8.04942 0.960476 8.59385 0.962414C20.9319 0.962414 33.2718 0.962414 45.6098 0.962414C48.1925 0.943039 50.7539 2.0261 52.548 3.88223C54.3034 5.66473 55.3205 8.15054 55.305 10.6538C55.305 27.9595 55.305 45.2634 55.305 62.5691C55.2915 64.1869 55.4368 65.859 54.8459 67.4032C53.7705 70.6155 50.5485 72.9522 47.154 72.9405C33.8414 72.9386 20.5308 72.9464 7.21823 72.9367C3.6106 72.9037 0.431167 69.672 0.458292 66.0644C0.456354 47.0071 0.454417 27.9518 0.458292 8.89454C0.479604 5.2036 3.34323 1.79748 6.96829 1.12323ZM24.3283 18.4542C23.3014 18.551 22.4567 19.514 22.4915 20.5447C22.4877 31.7086 22.4896 42.8725 22.4896 54.0344C22.416 55.1465 23.3673 56.1986 24.4872 56.2102C26.4867 56.2257 28.4881 56.2141 30.4895 56.218C31.3014 56.2587 32.1074 55.782 32.458 55.0477C32.7429 54.5033 32.6634 53.8736 32.675 53.2846C32.6731 42.6245 32.6731 31.9663 32.675 21.3062C32.6634 20.7753 32.7293 20.2154 32.5084 19.7135C32.1868 18.925 31.3498 18.396 30.5012 18.4367C28.4435 18.4464 26.384 18.4135 24.3283 18.4542Z" fill="white"/>
<path d="M60.4084 0.964355C73.6784 0.96823 86.9464 1.00311 100.216 1.01473C105.327 6.11036 110.421 11.2234 115.525 16.3268C115.525 30.1644 115.528 44.004 115.523 57.8416C110.499 62.8733 105.465 67.8953 100.447 72.9347C87.1014 72.9502 73.7559 72.9367 60.4104 72.9405C60.4084 48.9485 60.4123 24.9564 60.4084 0.964355ZM83.4666 18.7293C82.8873 19.0393 82.5076 19.6806 82.5231 20.3394C82.5211 31.6369 82.5192 42.9345 82.5231 54.232C82.4921 55.2105 83.3814 56.0882 84.3598 56.0455C86.6771 56.0514 88.9943 56.0475 91.3096 56.0475C92.3094 56.1269 93.251 55.257 93.2278 54.2534C93.2355 42.9422 93.2336 31.6311 93.2297 20.32C93.2529 19.3822 92.4373 18.522 91.4956 18.5162C89.2423 18.4968 86.9871 18.5162 84.7338 18.5065C84.3017 18.5007 83.8483 18.5045 83.4666 18.7293Z" fill="white"/>
</svg>

<svg width="116" height="73" fill="none" xmlns="http://www.w3.org/2000/svg"><path d="M6.968 1.123a8.044 8.044 0 011.626-.16H45.61c2.583-.02 5.144 1.063 6.938 2.92a9.678 9.678 0 012.757 6.77V62.57c-.014 1.618.132 3.29-.46 4.834-1.075 3.212-4.297 5.55-7.691 5.537-13.313-.001-26.623.006-39.936-.003-3.607-.033-6.787-3.265-6.76-6.873-.002-19.057-.004-38.112 0-57.17.022-3.69 2.885-7.097 6.51-7.77zm17.36 17.331c-1.027.097-1.871 1.06-1.837 2.09-.003 11.165-.001 22.329-.001 33.49-.074 1.113.877 2.165 1.997 2.176 2 .016 4.001.004 6.003.008a2.107 2.107 0 001.968-1.17c.285-.545.205-1.174.217-1.763-.002-10.66-.002-21.319 0-31.979-.012-.53.054-1.09-.167-1.593a2.104 2.104 0 00-2.007-1.276c-2.058.01-4.117-.024-6.173.017zM60.408.964c13.27.004 26.538.04 39.808.05 5.111 5.096 10.205 10.21 15.309 15.313 0 13.837.003 27.677-.002 41.515-5.024 5.031-10.058 10.053-15.076 15.093-13.346.015-26.691.002-40.037.005-.002-23.991.002-47.984-.002-71.976zM83.467 18.73c-.58.31-.96.952-.944 1.61-.002 11.298-.004 22.596 0 33.893-.03.979.858 1.856 1.837 1.813 2.317.006 4.634.002 6.95.002 1 .08 1.941-.79 1.918-1.794.008-11.31.006-22.622.002-33.933.023-.938-.793-1.798-1.734-1.804-2.254-.02-4.509 0-6.762-.01-.432-.005-.886-.002-1.267.223z" fill="#fff"/></svg>
